packages/components/bolt-icons/src/svgs/product/services/scalability.svg

<?xml version="1.0" encoding="UTF-8"?>
<svg width="32px" height="32px" viewBox="0 0 32 32" version="1.1" xmlns="http://www.w3.org/2000/svg" xmlns:xlink="http://www.w3.org/1999/xlink">
    <!-- Generator: Sketch 49.3 (51167) - http://www.bohemiancoding.com/sketch -->
    <title>brand icons/community/brand-scalability</title>
    <desc>Created with Sketch.</desc>
    <defs>
        <path d="M16,27 L16,26 L18,26 L18,27 L24,27 L24,24 L27,24 L27,8.001 L24,8.001 L24,5 L8,5 L8,8.001 L5,8.001 L5,14 L6,14 L6,16 L5,16 L5,24 L8,24 L8,27 L16,27 Z M24,0 L32,0 L32,8.001 L28.999,8.001 L28.999,24 L32,24 L32,32 L24,32 L24,29.001 L8,29.001 L8,32 L0,32 L0,24 L2.999,24 L2.999,8.001 L0,8.001 L0,0 L8,0 L8,3.001 L24,3.001 L24,0 Z M26,5 L26,6 L27,6 L28.999,6 L29.999,6 L29.999,2.001 L26,2.001 L26,3.001 L26,5 Z M1.999,2.001 L1.999,6 L2.999,6 L5,6 L6,6 L6,5 L6,3.001 L6,2.001 L1.999,2.001 Z M26,29.001 L26,30.001 L29.999,30.001 L29.999,26 L28.999,26 L27,26 L26,26 L26,27 L26,29.001 Z M1.999,26 L1.999,30.001 L6,30.001 L6,29.001 L6,27 L6,26 L5,26 L2.999,26 L1.999,26 Z M8,14 L10,14 L10,16 L8,16 L8,14 Z M12,14 L14,14 L14,16 L12,16 L12,14 Z M16,14 L18,14 L18,16 L16,16 L16,14 Z M16,18 L18,18 L18,20 L16,20 L16,18 Z M16,22 L18,22 L18,24 L16,24 L16,22 Z" id="path-1"></path>
    </defs>
    <g id="brand-icons/community/brand-scalability" stroke="none" stroke-width="1" fill="none" fill-rule="evenodd">
        <mask id="mask-2" fill="white">
            <use xlink:href="#path-1"></use>
        </mask>
        <g id="Mask"></g>
        <g id="z_atom/Icon-color/brand-black" mask="url(#mask-2)" fill="#2D2E33">
            <rect id="Rectangle-15" x="0" y="0" width="32" height="32"></rect>
        </g>
    </g>
</svg>

<svg id="ecb1e14f-a684-46df-b307-759449643ad4" data-name="Layer 1" xmlns="http://www.w3.org/2000/svg" viewBox="0 0 32 32"><title>scalability</title><path id="ba6f92af-5983-40fc-9a23-0988cd0fccce" data-name="path-1" d="M16,27V26h2v1h6V24h3V8H24V5H8V8H5v6H6v2H5v8H8v3ZM24,0h8V8H29V24h3v8H24V29H8v3H0V24H3V8H0V0H8V3H24Zm2,5V6h4V2H26V5ZM2,2V6H6V2ZM26,29v1h4V26H26v3ZM2,26v4H6V26H2ZM8,14h2v2H8Zm4,0h2v2H12Zm4,0h2v2H16Zm0,4h2v2H16Zm0,4h2v2H16Z" fill="#1f2555" fill-rule="evenodd"/></svg>
